X:12
M:4/4
L:1/4
Q:1/2=105
K:G
f/e/ | gf/e/ d/e/d/_B/ | AF2e/f/ | gf/e/ d/A/B/c/ | BG2 ||
e/f/ | gggf/g/ | aaae/f/ | g/f/g/a/gd | BG2 ||

